svg/media/playlist_fill.svg

<?xml version="1.0" encoding="UTF-8"?>
<svg width="24px" height="24px" viewBox="0 0 24 24" version="1.1" xmlns="http://www.w3.org/2000/svg" xmlns:xlink="http://www.w3.org/1999/xlink">
    <title>playlist_fill</title>
    <g id="Icon" stroke="none" stroke-width="1" fill="none" fill-rule="evenodd">
        <g id="Media" transform="translate(-672.000000, -240.000000)" fill-rule="nonzero">
            <g id="playlist_fill" transform="translate(672.000000, 240.000000)">
                <path d="M24,0 L24,24 L0,24 L0,0 L24,0 Z M12.5935,23.2578 L12.5819,23.2595 L12.5109,23.295 L12.4919,23.2987 L12.4767,23.295 L12.4057,23.2595 C12.3958,23.2564 12.387,23.259 12.3821,23.2649 L12.378,23.2758 L12.3609,23.7031 L12.3659,23.7235 L12.3769,23.7357 L12.4805,23.8097 L12.4953,23.8136 L12.5071,23.8097 L12.6107,23.7357 L12.6233,23.7197 L12.6267,23.7031 L12.6096,23.2758 C12.6076,23.2657 12.601,23.2593 12.5935,23.2578 Z M12.8584,23.1453 L12.8445,23.1473 L12.6598,23.2397 L12.6499,23.2499 L12.6472,23.2611 L12.6651,23.6906 L12.6699,23.7034 L12.6784,23.7105 L12.8793,23.8032 C12.8914,23.8069 12.9022,23.803 12.9078,23.7952 L12.9118,23.7812 L12.8777,23.1665 C12.8753,23.1546 12.8674,23.147 12.8584,23.1453 Z M12.143,23.1473 C12.1332,23.1424 12.1222,23.1453 12.1156,23.1526 L12.1099,23.1665 L12.0758,23.7812 C12.0751,23.7927 12.0828,23.8019 12.0926,23.8046 L12.1083,23.8032 L12.3092,23.7105 L12.3186,23.7024 L12.3225,23.6906 L12.3404,23.2611 L12.3372,23.2485 L12.3278,23.2397 L12.143,23.1473 Z" id="MingCute"></path>
                <path d="M17.3295,4.05544 L20.3163,5.05129 C20.8402,5.22598 21.1233,5.79232 20.9487,6.31625 C20.774,6.84018 20.2076,7.1233 19.6837,6.94861 L18,6.38724 L18,17.5 C18,19.4329 16.433,21 14.5,21 C12.567,21 11,19.4329 11,17.5 C11,15.567 12.567,14 14.5,14 C15.0368,14 15.5454,14.1208 16,14.3368 L16,5.01358 C16,4.32417 16.6754,3.83738 17.3295,4.05544 Z M8,17 C8.55228,17 9,17.4477 9,18 C9,18.5522 8.55228,19 8,19 L4,19 C3.44772,19 3,18.5522 3,18 C3,17.4477 3.44772,17 4,17 L8,17 Z M10,11 C10.5523,11 11,11.4477 11,12 C11,12.5522 10.5523,13 10,13 L4,13 C3.44772,13 3,12.5522 3,12 C3,11.4477 3.44772,11 4,11 L10,11 Z M13,4.99995 C13.5523,4.99995 14,5.44767 14,5.99995 C14,6.51279071 13.613973,6.93545786 13.1166239,6.99322234 L13,6.99995 L4,6.99995 C3.44772,6.99995 3,6.55224 3,5.99995 C3,5.48711857 3.38604429,5.06444347 3.88337975,5.0066778 L4,4.99995 L13,4.99995 Z" id="形状" fill="#09244B"></path>
            </g>
        </g>
    </g>
</svg>

<svg xmlns="http://www.w3.org/2000/svg" width="24" height="24"><g fill="none" fill-rule="nonzero"><path d="M24 0v24H0V0h24ZM12.594 23.258l-.012.002-.071.035-.02.004-.014-.004-.071-.036c-.01-.003-.019 0-.024.006l-.004.01-.017.428.005.02.01.013.104.074.015.004.012-.004.104-.074.012-.016.004-.017-.017-.427c-.002-.01-.009-.017-.016-.018Zm.264-.113-.014.002-.184.093-.01.01-.003.011.018.43.005.012.008.008.201.092c.012.004.023 0 .029-.008l.004-.014-.034-.614c-.003-.012-.01-.02-.02-.022Zm-.715.002a.023.023 0 0 0-.027.006l-.006.014-.034.614c0 .012.007.02.017.024l.015-.002.201-.093.01-.008.003-.011.018-.43-.003-.012-.01-.01-.184-.092Z"/><path fill="#09244B" d="m17.33 4.055 2.986.996a1 1 0 0 1-.632 1.898L18 6.387V17.5a3.5 3.5 0 1 1-2-3.163V5.014c0-.69.675-1.177 1.33-.959ZM8 17a1 1 0 1 1 0 2H4a1 1 0 0 1 0-2h4Zm2-6a1 1 0 1 1 0 2H4a1 1 0 0 1 0-2h6Zm3-6a1 1 0 0 1 .117 1.993L13 7H4a1 1 0 0 1-.117-1.993L4 5h9Z"/></g></svg>
